azure-patterns/svg-security-check.svg

<svg xmlns="http://www.w3.org/2000/svg" viewBox="0 0 41 51">
                                
                            
  <path d="M1.6133,9.2436 C1.6133,9.2436 7.5303,9.6606 12.2803,6.9106 C17.0303,4.1606 20.1133,0.9106 20.1133,0.9106 C20.1133,0.9106 23.6133,5.3266 29.6133,6.9936 C35.6133,8.6606 39.3633,9.6606 39.3633,9.6606 C39.3633,9.6606 39.5303,20.9106 39.1973,23.9106 C38.8633,26.9106 37.4473,34.7436 33.6133,39.9936 C29.7803,45.2436 23.1973,48.9936 20.6973,48.9936 C18.1973,48.9936 9.1973,45.5766 6.0303,39.1606 C2.8633,32.7436 1.1133,27.7436 1.0303,22.5766 C0.9473,17.4106 1.6133,9.2436 1.6133,9.2436" fill="#FFFFFF"></path>
  <polygon points="17.5498 35.1287 9.7798 27.2647 11.9148 25.1567 17.5558 30.8657 31.4348 16.8827 33.5638 18.9967"></polygon>
  <path d="M2,10.3706 L2,22.4636 C2,39.0266 15.467,48.1866 20.102,48.3256 C24.737,48.1866 38.204,39.0266 38.204,22.4636 L38.204,10.2836 C35.608,10.1066 28.479,9.0186 20.258,2.6416 C12.39,9.7496 4.841,10.4016 2,10.3706 Z M20.207,50.3266 L19.997,50.3216 C14.621,50.0726 0,40.5056 0,22.4636 L0,8.1806 L1.126,8.3226 C1.214,8.3346 10.306,9.3226 19.52,0.6006 L20.154,-0.0004 L20.834,0.5476 C30.651,8.4566 39.098,8.3176 39.174,8.3156 L40.202,8.2876 L40.204,22.4636 C40.204,40.5056 25.583,50.0726 20.207,50.3216 L20.207,50.3266 Z"></path>
</svg>

<svg xmlns="http://www.w3.org/2000/svg" viewBox="0 0 41 51"><path d="M1.613 9.244S7.53 9.66 12.28 6.91s7.833-6 7.833-6 3.5 4.416 9.5 6.083c6 1.667 9.75 2.667 9.75 2.667s.167 11.25-.166 14.25c-.334 3-1.75 10.833-5.584 16.083-3.833 5.25-10.416 9-12.916 9S9.197 45.577 6.03 39.16c-3.167-6.417-4.917-11.417-5-16.584-.083-5.166.583-13.333.583-13.333" fill="#FFF"/><path d="M17.55 35.129l-7.77-7.864 2.135-2.108 5.64 5.709 13.88-13.983 2.129 2.114z"/><path d="M2 10.37v12.094c0 16.563 13.467 25.723 18.102 25.862 4.635-.14 18.102-9.3 18.102-25.862v-12.18c-2.596-.177-9.725-1.265-17.946-7.642C12.39 9.75 4.841 10.402 2 10.37zm18.207 39.957l-.21-.005C14.621 50.072 0 40.506 0 22.464V8.18l1.126.142c.088.012 9.18 1 18.394-7.722L20.154 0l.68.548c9.817 7.909 18.264 7.77 18.34 7.768l1.028-.028.002 14.176c0 18.042-14.621 27.609-19.997 27.858v.005z"/></svg>
